X:1
T:Title
%%score { ( 1 3 ) | ( 2 4 ) }
L:1/8
M:4/4
K:F
V:1 treble nm="Grand Piano"
V:3 treble 
V:2 bass 
V:4 bass 
V:1
 z4 z2[Q:1/4=100] F>A | c2 c2 c2 c2 |[M:3/4] c4 z2 |[M:1/4] z2 | %4
[M:4/4] [FAc]2 [FAc]2 [GBc]2 [GBc]2 |[M:3/4] [FAc]2 c2 c2 |[M:1/4] F>A |[M:4/4] c2 c2 c2 c2 | %8
[M:3/4] c4 z2 |[M:1/4] z2 |[M:4/4] [EGc]2 [EGc]2 [DFG=B]2 [DFGB]2 |[M:3/4] [EGc]2 c2 c2 | %12
[M:1/4] G>A |[M:4/4] B2 B2 G2 d2 | c4 z4 | c2 B2 G2 c2 |[M:3/4] A6 |[M:1/4] A>c | %18
[M:4/4] [Af] [Af]3 [Ac] [Ac]3 | d d3 B B3 | [Ed][Ec][E=B][Ec] [Ed]2 [Ec]2 |[M:3/4] F6 | %22
[M:1/4][K:bass] F,>A, |[M:4/4][K:treble] c2 c2 B2 B2 | c2 c2 c2 [FAc]2 | %25
 [FAc]2 [FAc]2 [FG=B]2 [FGB]2 | [GBc]2 [Bc]2 [Bc]2 z2 | [GBc]2 [GBc]2 [GBc]2 [GBc]2 | %28
 [FAc]2 [FAc]2 [FAc]2 [FAc]2 | [EGc]2 [EGc]2 [FG=B]2 [FGB]2 |[M:3/4] [EGc]2 c2 c2 |[M:1/4] G>A | %32
[M:4/4] B2 B2 G2 d2 | c4 z4 | c2 B2 G2 c2 |[M:3/4] A6 |[M:1/4] A>c |[M:4/4] [Af] [Af]3 [Ac] [Ac]3 | %38
 d d3 B B3 | [Ed][Ec][E=B][Ec] [Ed]2 [Ec]2 |[M:7/4] F6 z2 z2 z4 |] %41
V:2
 z8 | [F,A,C]2 [F,A,C]2[K:treble] [G,B,CE]2 [G,B,CE]2 |[M:3/4] [A,CF]2 z d[K:bass] A,2 | %3
[M:1/4] F,>A, |[M:4/4] C2 C2 CB,A,G, |[M:3/4] z2[K:treble] [FA]2 [FA]2 |[M:1/4] z2 | %7
[M:4/4][K:bass] [F,A,C]2 [F,A,C]2[K:treble] [G,B,CE]2 [G,B,CE]2 |[M:3/4] [A,CF]2 z d[K:bass] A,2 | %9
[M:1/4] C>A, |[M:4/4] G,2 G,2 D,2 G,2 |[M:3/4] z2[K:treble] [EG]2 [EG]2 |[M:1/4] z2 | %13
[M:4/4] [G,B,CE]2 [G,B,CE]2 [G,B,CE]2 [G,B,CE]2 | [A,CF]2 [A,C]2 [A,CF]2 [A,CF]2 | %15
 [G,B,CE]2 [G,B,CE]2 [G,B,CE]2 [G,B,CE]2 |[M:3/4] [A,CF]2 [A,C]2 [A,C]2 |[M:1/4] z2 | %18
[M:4/4][K:bass] [F,C] [F,C]3[K:treble] [F,F] [F,F]3 | [B,FB] [B,FB]3 [B,DG] [B,DG]3 | %20
 [C,B,][C,B,][C,B,][C,B,] [C,B,]2 [C,B,]2 |[M:3/4] [F,A,]6 |[M:1/4] z2 | %23
[M:4/4][K:treble] [CFA]2 [CFA]2 [DFG]2 [DFG]2 | [FA]2 [FA]2 [FA]2 C>[K:bass]A, | F,2 F,2 G,2 A,2 | %26
 z2[K:treble] G2 G2 G,>A, | B,2[K:bass] G,2 E,2 D>D | C2 A,2 F,2 G,>A, | G,2 G,2 G,2 G,2 | %30
[M:3/4] z2[K:treble] [EG]2 [EG]2 |[M:1/4] z2 |[M:4/4] [G,B,CE]2 [G,B,CE]2 [G,B,CE]2 [G,B,CE]2 | %33
 [A,CF]2 [A,C]2 [A,CF]2 [A,CF]2 | [G,B,CE]2 [G,B,CE]2 [G,B,CE]2 [G,B,CE]2 | %35
[M:3/4] [A,CF]2 [A,C]2 [A,C]2 |[M:1/4] z2 |[M:4/4][K:bass] [F,C] [F,C]3[K:treble] [F,F] [F,F]3 | %38
 [B,FB] [B,FB]3 [B,DG] [B,DG]3 | [C,B,][C,B,][C,B,][C,B,] [C,B,]2 [C,B,]2 | %40
[M:7/4] [F,A,]6 z2 z2 z4 |] %41
V:3
 x8 | x8 |[M:3/4] z2 F2 [CFc]2 |[M:1/4] x2 |[M:4/4] x8 |[M:3/4] x6 |[M:1/4] x2 |[M:4/4] x8 | %8
[M:3/4] z2 F2 [CFc]2 |[M:1/4] x2 |[M:4/4] x8 |[M:3/4] x6 |[M:1/4] x2 |[M:4/4] x8 | z2 F2 A2 c>d | %15
 x8 |[M:3/4] z2 F2 F2 |[M:1/4] x2 |[M:4/4] x8 | x8 | x8 |[M:3/4] x6 |[M:1/4][K:bass] x2 | %23
[M:4/4][K:treble] x8 | x8 | x8 | x8 | x8 | x8 | x8 |[M:3/4] x6 |[M:1/4] x2 |[M:4/4] x8 | %33
 z2 F2 A2 c>d | x8 |[M:3/4] z2 F2 F2 |[M:1/4] x2 |[M:4/4] x8 | x8 | x8 |[M:7/4] x14 |] %41
V:4
 x8 | x4[K:treble] x4 |[M:3/4] z2 [A,C]2[K:bass] z2 |[M:1/4] x2 |[M:4/4] x8 | %5
[M:3/4] F,6[K:treble] |[M:1/4] x2 |[M:4/4][K:bass] x4[K:treble] x4 |[M:3/4] z2 [A,C]2[K:bass] z2 | %9
[M:1/4] x2 |[M:4/4] x8 |[M:3/4] C,6[K:treble] |[M:1/4] x2 |[M:4/4] x8 | x8 | x8 |[M:3/4] x6 | %17
[M:1/4] x2 |[M:4/4][K:bass] x4[K:treble] x4 | x8 | x8 |[M:3/4] x6 |[M:1/4] x2 | %23
[M:4/4][K:treble] x8 | C6 z2[K:bass] | x8 | G,6[K:treble] z2 | x2[K:bass] x6 | x8 | x8 | %30
[M:3/4] C,6[K:treble] |[M:1/4] x2 |[M:4/4] x8 | x8 | x8 |[M:3/4] x6 |[M:1/4] x2 | %37
[M:4/4][K:bass] x4[K:treble] x4 | x8 | x8 |[M:7/4] x14 |] %41

